X:1
T:All of You Who Walked in Darkness
T:All of You Who Walked in Darkness
T:Felix Mendelssohn, 1840 
T:Carolyn Winfrey Gillette, 2012
T:© 2012 Carolyn Winfrey Gillette Courtesy of the Cyber Hymnal™
T:© 2012 Carolyn Winfrey Gillette Courtesy of the Cyber Hymnal™
C:Felix Mendelssohn, 1840
Z:© 2012 Carolyn Winfrey Gillette
Z:Courtesy of the Cyber Hymnal™
%%score ( 1 2 ) ( 3 4 )
L:1/8
Q:1/4=112
M:4/4
K:F
V:1 treble 
V:2 treble 
V:3 bass 
V:4 bass 
V:1
 C2 [CF]2 [CF]3 [CE] | [CF]2 [FA]2 [FA]2 [EG]2 | [Fc]2 [Ec]2 c3 z B | [FA]2 [EG]2 [FA]4 | %4
w: 1.~All of you who|walked in dark- ness|Who have known the|fear of night—|
w: 2.~Still Christ comes to|save God’s peo- ple,|Still he comes to|those op- pressed.|
w: 3.~In this time of|cel- e- bra- tion,|May we show what|life can be,|
 C2 [CF]2 [CF]3 [CE] x | [A,F]2 [FA]2 A2 G2 | [Ec]2 [DG]2 [EG]3 [CE] x | [CE]2 [=B,D]2 C4 | %8
w: Now re- joice and|sing with glad- ness;|Come and see the|won- drous light!|
w: To the folks who|toil and strug- gle,|God has sent the|ve- ry best.|
w: As we care for|God’s cre- a- tion,|As we serve the|Prince of Peace.|
 [Cc]2 [Cc]2 [Cc]2 F2 | [GB]2 [FA]2 ([FA]2 [EG]2) | [Cc]2 [Cc]2 [Cc]2 F2 | %11
w: God has turned your|tears to songs, *|Lift- ing bur- dens,|
w: To the young and|to the old, *|To the home- less,|
w: Seek- ing jus- tice|ev- ery- where, *|Lift- ing bur- dens|
 [GB]2 [FA]2 ([FA]2 [EG]2) | [Bd]2 [Bd]2 [Bd]2 [Ac]2 | [GB]2 [^FA]2 [GB]4 | [EG]2 (AB) [Fc]3 [CF] | %15
w: right- ing wrongs. *|God sent us a|ti- ny boy|Bring- ing * hope and|
w: tired and cold, *|To the lost, to|those who mourn,|To the * world, a|
w: o- thers bear, *|May we glad- ly|serve and pray—|Know- ing * why we|
 [CF]2 [EG]2 [FA]4 ||"^Refrain" d3 [Bd] [Bd]2 [Ac]2 | [GB]2 [^FA]2 [GB]4 | %18
w: peace and joy.|||
w: child is born.|In one lit- tle|ba- by’s birth,|
w: live this way:|||
 [CG]2 (AB) [Fc]3 [CF] x | [CF]2 [EG]2 [CF]4 |] %20
w: ||
w: God knelt * down to|love the earth.|
w: ||
V:2
 C2 x6 | x8 | x4 (D2 G2) x | x8 | C2 x7 | x4 F4 | x9 | x4 C4 | x8 | x8 | x6 F2 | x8 | x8 | x8 | %14
 x2 E2 x4 | x8 || (B2 B) x5 | x8 | x2 E2 x5 | x8 |] %20
V:3
 [F,A,]2 [F,A,]2 A,3 G, | [A,,F,]2 [F,,C]2 [C,C]4 | [A,,C]2 [A,,C]2 [B,,D]2 [B,,D]2 x | %3
 [C,C]2 [C,C]2 [F,,C]4 | [F,A,]2 [F,A,]2 A,3 z G, | [D,F,]2 [C,C]2 [=B,,D]4 | %6
 [A,,A,]2 [=B,,G,]2 G,3 z G, | [F,,F,A,]2 [G,,F,]2 [C,E,]4 | C2 C2 C2 [A,C]2 | %9
 [E,C]2 [F,C]2 [C,C]4 | C2 C2 C2 [A,C]2 | [E,C]2 [F,C]2 [C,C]4 | [B,,D]2 [B,,D]2 [B,,D]2 [B,,D]2 | %13
 [B,,D]2 [D,D]2 [G,D]4 | [B,C]2 [B,C]2 C3 A, | [C,A,]2 [C,B,]2 [F,,A,]4 || %16
 ([B,D]2 [B,D]2) [B,D]2 [A,C]2 | [B,,G,B,]2 [D,^F,A,]2 B,4 | [E,C]2 [B,C]2 C3 z A, | %19
 [C,A,]2 [C,B,]2 [F,A,]4 |] %20
V:4
 x4 F,2 C,-C, | x8 | x9 | x8 | x4 F,2 C,2 x | x8 | x4 C,2 [E,,E,]2 x | x8 | C2 C2 C2 x2 | x8 | %10
 C2 C2 C2 x2 | x8 | x8 | x8 | x4 A,2 F,-F, | x8 || B,,8 | x4 (G,2 =F,2) | x4 B,2 F,2 x | x8 |] %20

